X:121
T:Rigaudon de Marseille
R:Rigaudon
C:Trad.
A:Provence
I:abc2nwc
M:2/4
L:1/16
K:C
G2G2 A2A2|(cB)AG c2G2|c2Bc d2ec|f2e2 !breath!d4|\
G2G2 A2A2|(cB)AG c2G2|c2Bc defg|B2A2 G4||
g2g2 g2fe|d2e2 f2!breath!d2|f2f2 f2ed|c2d2 e4|\
(cB)AG (cB)AG | (cB)AG c4 | (de)fd (fed)c | (ed)cB c4|]
%%footer $D   Galouvielle-MBe 2005 \nRigaudon France
